!! 00000] TT[WS
!!!OTL: Guan deng
!!!ARE: Asia, China, Shanxi Yuanping
!! Ethnic Group: Han
!! WII, 112 (1)
!!!SCT: J0568
!!!YEM: Copyright 1995, estate of Helmut Schaffrath.
**kern
*ICvox
*Ivox
*M2/4
*k[f#]
*G:
{8dd
16dd
16dd
8ee
8gg
=1
8dd
4.dd
=2
8gg
16ee
16dd
8dd
8e
=3
8g
4.g}
=4
{8.g
16a
8dd
8b
=5
8a
8b
8a
8g
=6
8a
16a
16b
8g
8d
=7
8e
8e
16g
16g
16g
16e
=8
8d
4.d}
==
!!!AGN: Xiaodiao. Qingge, Sichun
!!!ONB: ESAC (Essen Associative Code) Database: CHINA
!!!AMT: simple duple
!!!AIN: vox
!!!EED: Helmut Schaffrath
!!!EEV: 1.0
*-
